X:1582
T:Don't Ever Love
O:england
M:6/8
L:1/8
Q:70
C:Words and music by Rhonwen y Llysieuyddes (m.k.a. Julia West) (c) 1978
S:From "A Breeze Through the CONduit"
A:Filk
B:A Breeze Through the CONduit, (c) 1992 by Julia West
H:This was written for a bawdy ballads contest in the SCA back in 1978
W:Don't ever love a fighter:  He'll care more for his sword.
W:And while he's out there fighting you're on the sidelines, bored.
W:And even when you're snuggled close and have him in your arms
W:He's much too bruised and tired to appreciate your charms.
K:B
C|"G"F F "D7" G F/2=F/2 "G" ^F C-|C C "C" D D D C/2B,/2|
"D7" C3 C "C" B,B,|B, A,/2G,/2 "G" A, C2 C|
"A7" D D D C/2=C/2 "D7" ^C2-|C "G" F F =F =F|
"C" D D "G" C C "C" D D| D =F/2^F/2 "D7" =F3 C|
"C" D D "D7" =F =F "G" ^F C-|C C "C" D D "D7" =F D/2C/2|
"G" F4 z2||


